X: 172
M: C|
L: 1/8
K: Edor
V: 1
E/E/E G>A (TB>AB)d | D/D/D FE (DF/G/A)F |\
E/E/E G>A TB>ABe | dBdF E/E/E E :|
|: f |\
efge bfge | Tf>edf (a/g/f/e/) df |\
efge bfge | dBAF E/E/E E :|
V: 2 clef=bass middle=d
z |\
e2e2 e2e2 | d2d2 d2d2 |\
e2e2 e2e2 | d2d2 e2e :|\
|: z |
e2e2 e2e2 | d2d2 d2d2 |\
e2e2 e2e2 | d2d2 e2e :|

